svg/fluentui-system-icons/ic_fluent_pair_24_filled.svg

<svg width="24" height="24" viewBox="0 0 24 24" fill="none" xmlns="http://www.w3.org/2000/svg">
<path d="M18.2682 21.0011H11.7318C11.3858 21.5983 10.7398 22 10 22C8.89543 22 8 21.1046 8 20C8 19.2593 8.40262 18.6127 9.00093 18.267L9.001 15L5.73181 15.0011C5.40933 15.5578 4.82614 15.9446 4.14926 15.9945L4 16C2.89543 16 2 15.1046 2 14C2 13.2597 2.40217 12.6134 2.99993 12.2676V5.73239C2.40217 5.38657 2 4.74025 2 4C2 2.89543 2.89543 2 4 2C4.74025 2 5.38657 2.40217 5.73239 2.99993H12.2676C12.6134 2.40217 13.2597 2 14 2C15.1046 2 16 2.89543 16 4C16 4.73984 15.5983 5.38585 15.0011 5.73181L15 9L18.2676 8.99993C18.59 8.44271 19.1735 8.05545 19.8507 8.00549L20 8C21.1046 8 22 8.89543 22 10C22 10.7394 21.5987 11.3851 21.0021 11.7312V18.2688C21.5987 18.6149 22 19.2606 22 20C22 21.1046 21.1046 22 20 22C19.2602 22 18.6142 21.5983 18.2682 21.0011H11.7318H18.2682ZM18.2682 11.0011L15 11L15.0011 12.2682C15.5578 12.5907 15.9446 13.1739 15.9945 13.8507L16 14C16 15.1046 15.1046 16 14 16C13.2602 16 12.6142 15.5983 12.2682 15.0011L11.001 15L11.0021 18.2688C11.3048 18.4443 11.5572 18.697 11.7324 18.9999H18.2676C18.4434 18.696 18.6969 18.4427 19.0009 18.267V11.733C18.7479 11.5868 18.5298 11.3867 18.3624 11.1485L18.2682 11.0011ZM13 11L11.7318 11.0011C11.5566 11.3035 11.3044 11.5558 11.0021 11.7312L11.001 13L12.2676 12.9999C12.4432 12.6964 12.6964 12.4432 12.9999 12.2676L13 11ZM12.2682 5.00108H5.73181C5.55641 5.30387 5.30387 5.55641 5.00108 5.73181V12.2682C5.3042 12.4438 5.55696 12.6967 5.73239 13H9.001L9.00093 11.733C8.44318 11.4107 8.05548 10.827 8.00549 10.1493L8 10C8 8.89543 8.89543 8 10 8C10.7403 8 11.3866 8.40217 11.7324 8.99993L13 9V5.73239C12.7472 5.5862 12.5295 5.38631 12.3623 5.14832L12.2682 5.00108Z" fill="#212121"/>
</svg>

<svg xmlns="http://www.w3.org/2000/svg" width="24" height="24"><path d="M18.268 21.001h-6.536A2 2 0 1 1 9 18.267V15l-3.27.001a2 2 0 0 1-1.582.994L4 16a2 2 0 0 1-1-3.732V5.732A2 2 0 1 1 5.732 3h6.536A2 2 0 1 1 15 5.732V9h3.268a2 2 0 0 1 1.583-.995L20 8a2 2 0 0 1 1.002 3.731v6.538A2 2 0 1 1 18.268 21h-6.536 6.536Zm0-10L15 11l.001 1.268a2 2 0 0 1 .994 1.583L16 14a2 2 0 0 1-3.732 1.001L11.001 15l.001 3.269c.303.175.555.428.73.73h6.536a2.01 2.01 0 0 1 .733-.732v-6.534a2.011 2.011 0 0 1-.639-.585l-.094-.147ZM13 11l-1.268.001a2.01 2.01 0 0 1-.73.73L11.001 13h1.267a2.01 2.01 0 0 1 .732-.732V11Zm-.732-5.999H5.732a2.01 2.01 0 0 1-.73.73v6.537c.302.176.555.429.73.732h3.269v-1.267a2 2 0 0 1-.996-1.584L8 10a2 2 0 0 1 3.732-1H13V5.732a2.01 2.01 0 0 1-.638-.584l-.094-.147Z"/></svg>
